icon-themes/breeze_svg/sd/res/effectole_16.svg

<svg viewBox="0 0 16 16" xmlns="http://www.w3.org/2000/svg"><path d="m2 2v1h4v-1zm6 0-2 4-4 1 2 2v-1h9l1-1-4-1zm2 0v1h4v-1zm-8 2v1h3v-1zm9 0v1h3v-1zm-9 5v1h1v-1zm3 0v5h4v-1.5h-1v.5h-2v-3h2v.5h1v-1.5zm5 0v1.5h1v-.5h2v3h-2v-.5h-1v1.5h4v-5zm-8 2v1h2v-1zm5 0v1h5v-1zm-5 2v1h1v-1z" fill="#4d4d4d"/></svg>

<svg xmlns="http://www.w3.org/2000/svg" viewBox="0 0 16 16">
 <path 
     style="fill:#4d4d4d" 
     d="M 2 2 L 2 3 L 6 3 L 6 2 L 2 2 z M 8 2 L 6 6 L 2 7 L 4 9 L 4 8 L 13 8 L 14 7 L 10 6 L 8 2 z M 10 2 L 10 3 L 14 3 L 14 2 L 10 2 z M 2 4 L 2 5 L 5 5 L 5 4 L 2 4 z M 11 4 L 11 5 L 14 5 L 14 4 L 11 4 z M 2 9 L 2 10 L 3 10 L 3 9 L 2 9 z M 5 9 L 5 14 L 9 14 L 9 12.5 L 8 12.5 L 8 13 L 6 13 L 6 10 L 8 10 L 8 10.5 L 9 10.5 L 9 9 L 5 9 z M 10 9 L 10 10.5 L 11 10.5 L 11 10 L 13 10 L 13 13 L 11 13 L 11 12.5 L 10 12.5 L 10 14 L 14 14 L 14 9 L 10 9 z M 2 11 L 2 12 L 4 12 L 4 11 L 2 11 z M 7 11 L 7 12 L 12 12 L 12 11 L 7 11 z M 2 13 L 2 14 L 3 14 L 3 13 L 2 13 z "
     />
</svg>
